X: 12
T:Love At The Endings
M:2/2
L:1/8
C:Ed Reavy
S:The Collected Compostions of Ed Reavy
R:Reel
N:Who can forget the impassioned speech of
N:O'Killigan in O'Casey's Purple Dust,
N:especially when he sets out to
N:woo Avril away from her British lord.
N:O'Killigan has only the simple
N:things in his favor. But Avril finally
N:succumbs to his grand talk as
N:he urges her "to spit out what's here"
N:and make a home with him out
N:in the west of Ireland where they'll
N:both find "things to say and
N:things to do, and love at the endings."
Z:Joe Reavy
K:D
FE |: DEFA BcdB | AF (3FDF AFEF | DEFA (3BcB AF | (3GFE (3FED B,DDF |
DEFABcdB | AF (3FEF ABde | fgfe dfec |1 dBAF D3 E :|
|2 dBAF D3 g | fgfe defg | afbf afed | fgfe dfbf | afdf e2 de |
fgfe dcdB | AF (3FEF E2 DE | FABc dfec |1 dBAF d3 g :|2 dBAF D3 E |]

composer: Ed Reavy
